X:679
T:Polska
T:efter Alfred Petersson, Nättraby, Blekinge (SvL, Band 18, nr 287)
O:Nättraby, Blekinge
B:Svenska Låtar Blekinge
N:Svenska Låtar, Band 18 nr 287
R:Polska
C:Alfred Petersson
M:3/4
L:1/16
Q:1/4=100
Z:Konverterad till abc-format av  Olle Paulsson 05-01-03
K:A
A2c2 cBdB B2A2|c2e2 edfd e4|A2c2 cBdB B2A2|c2e2 edfd e4|
eagf egbg a2af|ecdB B2A2 A2E2:|
|:AeAe AeAe AeAe|f2de fagf f2e2|AeAe AeAe AeAe|
f2de fagf f2e2|eagf egbg a2af|ecdB B2A2 A4:|

(:musicend:)

(:music:)
